images/arrow-right-mini-icon.svg

<svg height="9" viewBox="0 0 9 9" width="9" xmlns="http://www.w3.org/2000/svg"><path d="m5.26464855 1.08848914c1.88964855 1.18289273 3.6 3.04054613 3.6457029 3.12468506.08964855.0857886.08964855.1699271.08964855.29696054 0 .08413851-.0457029.21117195-.08964855.29531045-.0457029.08413893-1.8 1.94179233-3.6457029 3.12468506-.13535145.08413893-.31464855.08413893-.4939452.04289409-.1353519-.0841385-.27070335-.21117194-.27070335-.38109905v-1.56234253s-3.91464855-.21117194-4.0957029-.33820496c-.225-.25241678-.4042971-.75889917-.4042971-1.22413757 0-.46523798.1792971-.9288267.4042971-1.09875381.18105435-.08413892 4.0957029-.37944979 4.0957029-.37944979v-1.56234253c0-.16992711.08964855-.29531045.27070335-.38109905.13359375-.08413893.3146481-.04124484.4939452.04289409z" fill="#111"/></svg>

<?xml version="1.0" encoding="UTF-8"?>
<svg width="9px" height="9px" viewBox="0 0 9 9" version="1.1" xmlns="http://www.w3.org/2000/svg" xmlns:xlink="http://www.w3.org/1999/xlink">
    <!-- Generator: Sketch 51.3 (57544) - http://www.bohemiancoding.com/sketch -->
    <title>arrow-right-mini-icon</title>
    <desc>Created with Sketch.</desc>
    <defs></defs>
    <g id="arrow-right-mini-icon" stroke="none" stroke-width="1" fill="none" fill-rule="evenodd">
        <path d="M5.26464855,1.08848914 C7.1542971,2.27138187 8.86464855,4.12903527 8.91035145,4.2131742 C9,4.2989628 9,4.3831013 9,4.51013474 C9,4.59427325 8.9542971,4.72130669 8.91035145,4.80544519 C8.86464855,4.88958412 7.11035145,6.74723752 5.26464855,7.93013025 C5.1292971,8.01426918 4.95,8.01426918 4.77070335,7.97302434 C4.63535145,7.88888584 4.5,7.7618524 4.5,7.59192529 L4.5,6.02958276 C4.5,6.02958276 0.58535145,5.81841082 0.4042971,5.6913778 C0.1792971,5.43896102 0,4.93247863 0,4.46724023 C0,4.00200225 0.1792971,3.53841353 0.4042971,3.36848642 C0.58535145,3.2843475 4.5,2.98903663 4.5,2.98903663 L4.5,1.4266941 C4.5,1.25676699 4.58964855,1.13138365 4.77070335,1.04559505 C4.9042971,0.961456119 5.08535145,1.00435021 5.26464855,1.08848914 Z" id="Arrow" fill="#111111" fill-rule="nonzero"></path>
    </g>
</svg>
